X: 33407
T: Quill, The
R: reel
M: 4/4
K: Gmajor
|:f|gBBA BAGB|AGFE DCB,A,|G,B,DG GFGA|BGcB A3 f|
gBBA BAGB|AGFG ABcA|BBgB dgeg|fdef g3:|
e|f2 cf Afca|gfdc cBAB|ADDD ABcA|defa defg|
acBc Acfa|gfdc cBAB|ADDD ABcA|defa g3 e|
f2 cf Afca|gfdc cBAB|ADDD ABcA|defa defg|
a4 Acfa|gfdc cBAB|ADDD ABcA|defa g3||"last" defg agfa|g2||

